X:1321
T:Killavil Jig, The
O:ireland
R:jig
D:Matt Molloy, Tommy Peoples, Paul Brady
D:Mary McNamara: Traditional Music from East Clare
Z:id:hn-jig-200
M:6/8
K:Edor
BEE BEE|Bdf edB|BAF FEF|DFA dBA|BEE BEE|Bdf edB|BAF dAF|FED E3:|
Bef gfe|~f3 edB|BAF FEF|DFA dBA|Bef gfe|fef edB|BAF dAF|FED E3:|
"Variations:"
BEE BEE|d2f edB|BAF FEF|DFA BAF|BEE BEE|d2f edB|BAB dAF|FED E3:|
e2f g2e|faf edB|BAF FEF|DFA BAF|e2f g2e|faf edB|BAB dAF|FED E3:|
This file contains 100 jigs (#201 - #300).
You can find more abc tune files at http://home1.swipnet.se/~w-11382/abc.htm
I've transcribed them as I have learnt them, which does not necessarily mean
that I play them that way nowadays. Many of the tunes include variations and
different versions. If there is a source (S:) or discography (D:) included the
version transcribed might still not be exactly as that source played the tune,
since I might have changed the tune around a bit when I learnt it.
The tunes were learnt from sessions, from friends or from recordings.
When I've included discography, it's often just a reference to what recordings
the tune appears on.
Last updated 9 April 2001.
(c) Copyright 1997-2001 Henrik Norbeck. This file:
- May be distributed freely (with restrictions below).
- May not be used for commercial purposes (such as printing a tune book to sell).
- This file (or parts of it) may not be made available on a web page for
download without permission from me.
- This copyright notice must be kept, except when e-mailing individual tunes.
- May be printed on paper for personal use.
- Questions? E-mail: henrik.norbeck@mailbox.swipnet.se






